packages/symbols/svgs/solid/wave-sine-solid.svg

<svg width="16" height="16" viewBox="0 0 16 16" fill="none" xmlns="http://www.w3.org/2000/svg">
<g clip-path="url(#clip0_717_2791)">
<path d="M15.9659 9.10357C15.8259 9.60446 14.5108 14 11.5782 14C8.6605 14 7.36292 8.80089 7.20291 8.20893C6.88039 6.74107 5.73783 3.71429 4.40025 3.71429C2.92766 3.71429 1.8336 6.43571 1.56683 7.38929C1.43932 7.84196 0.993796 8.09911 0.570771 7.96518C0.147221 7.82857 -0.0930184 7.34911 0.0339391 6.89643C0.174572 6.39554 1.48907 2 4.40025 2C7.34042 2 8.638 7.19911 8.77551 7.79375C9.12053 9.23482 10.2631 12.2857 11.5782 12.2857C13.0513 12.2857 14.1458 9.56429 14.4108 8.61071C14.5386 8.15696 14.9851 7.9025 15.4069 8.03562C15.8534 8.17143 16.0934 8.65089 15.9659 9.10357Z" fill="black"/>
</g>
<defs>
<clipPath id="clip0_717_2791">
<rect width="16" height="16" fill="white"/>
</clipPath>
</defs>
</svg>

<svg width="16" height="16" viewBox="0 0 16 16" xmlns="http://www.w3.org/2000/svg"><g clip-path="url(#a)"><path d="M15.966 9.104c-.14.5-1.455 4.896-4.388 4.896-2.917 0-4.215-5.2-4.375-5.791C6.88 6.74 5.738 3.714 4.4 3.714c-1.472 0-2.566 2.722-2.833 3.675-.128.453-.573.71-.996.576C.147 7.83-.093 7.35.034 6.896.174 6.396 1.489 2 4.4 2c2.94 0 4.238 5.2 4.376 5.794.345 1.44 1.487 4.492 2.802 4.492 1.473 0 2.568-2.722 2.833-3.675.128-.454.574-.709.996-.575.446.135.686.615.559 1.068Z"/></g><defs><clipPath id="a"><path fill="#fff" d="M0 0h16v16H0z"/></clipPath></defs></svg>
